NeoWeb/wwwroot/images/wallets/logo/zelcore.svg

<svg height="2002" viewBox="0 0 2001 2002" width="2001" xmlns="http://www.w3.org/2000/svg"><ellipse cx="1000.5" cy="1001" fill="#183c87" rx="1000.5" ry="1001"/><g fill="#fff" fill-rule="evenodd"><path d="m269 974 297-172 296 172v344l-296 172-297-172z"/><path d="m1141 974 297-172 296 172v344l-296 172-297-172z"/><path d="m626 673 375-219 376 219v123l-269 156v315l-107 62-106-62v-315l-269-156z"/></g></svg>

<svg id="Cube" xmlns="http://www.w3.org/2000/svg" width="2001" height="2002" viewBox="0 0 2001 2002">
  <metadata><?xpacket begin="﻿" id="W5M0MpCehiHzreSzNTczkc9d"?>
<x:xmpmeta xmlns:x="adobe:ns:meta/" x:xmptk="Adobe XMP Core 5.6-c140 79.160451, 2017/05/06-01:08:21        ">
   <rdf:RDF xmlns:rdf="http://www.w3.org/1999/02/22-rdf-syntax-ns#">
      <rdf:Description rdf:about=""/>
   </rdf:RDF>
</x:xmpmeta>
                                                                                                    
                                                                                                    
                                                                                                    
                                                                                                    
                                                                                                    
                                                                                                    
                                                                                                    
                                                                                                    
                                                                                                    
                                                                                                    
                                                                                                    
                                                                                                    
                                                                                                    
                                                                                                    
                                                                                                    
                                                                                                    
                                                                                                    
                                                                                                    
                                                                                                    
                                                                                                    
                           
<?xpacket end="w"?></metadata>
<defs>
    <style>
      .cls-1 {
        fill: #183c87;
      }

      .cls-2 {
        fill: #fff;
        fill-rule: evenodd;
      }
    </style>
  </defs>
  <ellipse class="cls-1" cx="1000.5" cy="1001" rx="1000.5" ry="1001"/>
  <g id="Box_Left" data-name="Box Left">
    <path id="Box_Left-2" data-name="Box Left" class="cls-2" d="M269,974L566,802,862,974v344L566,1490,269,1318V974Z"/>
  </g>
  <g id="Box_Right" data-name="Box Right">
    <path id="Box_Left-3" data-name="Box Left" class="cls-2" d="M1141,974l297-172,296,172v344l-296,172-297-172V974Z"/>
  </g>
  <g id="Box_Main" data-name="Box Main">
    <path id="Box_Main-2" data-name="Box Main" class="cls-2" d="M626,673l375-219,376,219V796L1108,952v315l-107,62-106-62V952L626,796V673Z"/>
  </g>
</svg>
